!!!SOCIAL_FUNCTION:	songs of war
!!!PDT:	1918

Specific Region: Dakotas, Minnesota, Montana, Nebraska
!!!REG: Dakotas and Montana
!!!LING_GROUP: Siouan
!!!LANG: Tone
!!!OTL@ENG: Those Hills I Trod Upon
!!!ONM: No. 132b
**kern
*Imale
*clefF4
*k[b-e-]
*M2/4
*MM96
8.D
16D
=1
8.d
16d
8.c
16d
=2||
*M3/4
8.B-
16G
(4B-
8.G)
16B-
=3
8.B-
16d
(16d
8.B-)
8.G
16G
=4
8.F
16D
8.F
16F
8.D
16G
=5||
*M2/4
8.G
16B-
(16B-
8.G)
=6||
*M3/4
8.F
16F
8.F
16D
8.D
16D
=7||
*M2/4
8D
8D
8.D
16D
=8
4.D
8F
=9||
*M3/4
8.D
16F
8.F
16D
8.D
16D
=10||
*M2/4
2D
=11
2D
==
*-
!!!CNT: Native American -- Sioux
!!!MRD: 1911/07//-1914///
!!!OCL: Frances Densmore
!!!YOR1: Teton Sioux Music, Bulletin 61,
!!!YOR2: Bureau of American Ethnology, Smithsonian Institution
!!!PPR: Government Printing Office
!!!PPP: Washington, D.C.
!!!PDT: 1918///
!!!ENC: Craig Stuart Sapp
!!!END: 2002/03/25/
!!!EEV: 2002/03/31/
!!!AGN: War Song/Song of a Typical War Expedition
!!!MPN@@SIO: Wopo'-tapi
!!!MPN@ENG: Many Wounds
!!!TXO: Teton Sioux
!!!MLC: Standing Rock Reservation, South Dakota, United States of America
!!!ARL: 45.9/-100.7#
!!!catalog: Catalogue No. 670
!!!PPG: 343
!!!EFL: 133/245
!!!VTS: 1225041562
